icon-svg/wiser-heating-ctl-on.svg

<svg xmlns="http://www.w3.org/2000/svg" fill="#44739e" viewBox="0 0 24 24"><path d="M12.089 8.751c-.411.006-.525.277-.441.747a.292.292 0 0 1-.457.322.324.324 0 0 1-.063-.5c.295-.322.351-1.122-.64-1.769.555 1.307-.39 1.273-.816 2.013a1.636 1.636 0 0 0 1.055 2.211 1.236 1.236 0 0 1-.243-1.83c-.1.539.215.938.563.857a.563.563 0 0 1 .64.56.4.4 0 0 1-.25.466 1.2 1.2 0 0 0 1.155-1.4c-.077-.838-.787-1.021-.503-1.677m9.527 10.042-.263-14.726a1.741 1.741 0 0 0-1.313-1.486S5.848 2.02 5.7 2.011a2.74 2.74 0 0 0-.893.174c-.026.011-.435.182-.421.247l15.284.608a1.547 1.547 0 0 1 1.212 1.5l.1 15.88c.076.02.242-.263.386-.547a2.28 2.28 0 0 0 .248-1.08M18.768 3.277 4.46 2.785A1.783 1.783 0 0 0 2.616 4.6L2.9 18.935a1.783 1.783 0 0 0 1.62 1.741l14.175 1.305a1.784 1.784 0 0 0 1.947-1.793l-.153-15.147a1.782 1.782 0 0 0-1.721-1.764m-8.47.748.007.2h.009a.313.313 0 0 1 .3-.208.24.24 0 0 1 .057.007v.171a.33.33 0 0 0-.068-.008.259.259 0 0 0-.269.223.43.43 0 0 0-.009.084v.53l-.2-.007V4.33c0-.117 0-.218-.009-.31zm-.866-.049a.451.451 0 0 1 .452.481.7.7 0 0 1-.006.084l-.769-.026a.35.35 0 0 0 .375.357.77.77 0 0 0 .3-.041l.034.13a.94.94 0 0 1-.364.049.5.5 0 0 1-.537-.517.482.482 0 0 1 .515-.517m-1.08.535c-.194-.07-.286-.171-.286-.289 0-.158.141-.284.374-.277a.6.6 0 0 1 .267.07l-.05.129a.47.47 0 0 0-.222-.065c-.116 0-.181.056-.181.129s.065.12.206.174c.188.071.285.16.285.307 0 .173-.148.291-.406.281a.68.68 0 0 1-.3-.077l.049-.135a.56.56 0 0 0 .259.08c.144 0 .211-.058.211-.139s-.058-.135-.206-.188m-.665-.955a.116.116 0 0 1 .121.116.108.108 0 0 1-.125.106.117.117 0 0 1-.118-.114.11.11 0 0 1 .122-.108m.1.391v.984l-.2-.007v-.983Zm-.028 2.681A.331.331 0 0 1 7.438 7a.321.321 0 0 1-.316-.35.331.331 0 0 1 .325-.364.308.308 0 0 1 .312.342M7.283 5.8h.146L6.762 7h-.144Zm-.68.713a.318.318 0 0 1-.315-.35.33.33 0 0 1 .324-.363.308.308 0 0 1 .312.344.33.33 0 0 1-.324.372ZM5.833 3.5l.175.693c.044.17.083.341.11.473a4.8 4.8 0 0 1 .125-.466l.2-.68.2.006.181.7c.042.163.082.326.1.471.031-.149.073-.3.119-.468l.2-.683.2.006L7.021 4.9H6.82l-.187-.72a3.6 3.6 0 0 1-.1-.447 3.8 3.8 0 0 1-.114.44l-.211.7-.2-.007L5.631 3.5Zm2.9 13.877a.3.3 0 0 1-.324.284l-1.221-.08a.3047.3047 0 0 1 .04-.608l1.221.08a.3.3 0 0 1 .28.328zm2.8 1.315a1.123 1.123 0 0 1-1.06-1.152 1 1 0 0 1 .351-.787.884.884 0 0 1 .741-.177 1.152 1.152 0 0 1 .874 1.133.937.937 0 0 1-.906.991zm4.488-.7a.306.306 0 0 1-.3.285H15.7l-.339-.022v.345a.252.252 0 0 1-.252.252.255.255 0 0 1-.178-.074.253.253 0 0 1-.073-.178v-.376l-.379-.025a.3047.3047 0 0 1 .02-.609h.02l.339.022v-.343a.252.252 0 0 1 .5 0v.376l.379.025a.3.3 0 0 1 .284.323zm-1.211-4.538a.536.536 0 0 1 .6-.532.521.521 0 0 1 .579.513.54.54 0 0 1-.6.536.527.527 0 0 1-.579-.517m1.9 1.41c.228-3.464-3.959-3.7-3.88-.281l-7.015-.507-.1-6.961c1.245 1.709 3.385.439 3.03-1.606l8.244.416.124 8.968zM9.416 4.1a.3.3 0 0 0-.3.283l.581.019a.275.275 0 0 0-.281-.302m5.989 9.647c.137 0 .225-.121.225-.3 0-.15-.065-.3-.225-.3s-.231.154-.231.3c0 .171.081.3.231.3M7.443 6.85c.077 0 .115-.079.115-.209s-.031-.209-.115-.209-.117.093-.117.209.039.209.117.209m-.836-.899c-.08 0-.118.092-.118.208s.041.209.12.209.114-.079.114-.209-.032-.208-.116-.208M11.5 16.9a.66.66 0 0 0-.123-.012.545.545 0 0 0-.35.124.68.68 0 0 0-.232.537.809.809 0 0 0 .738.83.62.62 0 0 0 .584-.661.836.836 0 0 0-.617-.818"/></svg>

<?xml version="1.0" encoding="UTF-8"?>
<svg width="24px" fill="#44739e" height="24px" viewBox="0 0 24 24" version="1.1" xmlns="http://www.w3.org/2000/svg" xmlns:xlink="http://www.w3.org/1999/xlink">
            <path d="M 12.089,8.751 C 11.678,8.757 11.564,9.028 11.648,9.498 A 0.292,0.292 0 0 1 11.191,9.82 0.324,0.324 0 0 1 11.128,9.32 c 0.295,-0.322 0.351,-1.122 -0.64,-1.769 0.555,1.307 -0.39,1.273 -0.816,2.013 a 1.636,1.636 0 0 0 1.055,2.211 1.236,1.236 0 0 1 -0.243,-1.83 c -0.1,0.539 0.215,0.938 0.563,0.857 a 0.563,0.563 0 0 1 0.64,0.56 0.4,0.4 0 0 1 -0.25,0.466 1.2,1.2 0 0 0 1.155,-1.4 C 12.515,9.59 11.805,9.407 12.089,8.751 Z M 5.7,2.011 Z M 21.616,18.793 21.353,4.067 A 1.741,1.741 0 0 0 20.04,2.581 c 0,0 -14.192,-0.561 -14.34,-0.57 A 2.743,2.743 0 0 0 4.807,2.185 C 4.781,2.196 4.372,2.367 4.386,2.432 L 19.67,3.04 a 1.547,1.547 0 0 1 1.212,1.5 l 0.1,15.88 c 0.076,0.02 0.242,-0.263 0.386,-0.547 a 2.28,2.28 0 0 0 0.248,-1.08 z M 18.768,3.277 4.46,2.785 A 1.783,1.783 0 0 0 2.616,4.6 L 2.9,18.935 a 1.783,1.783 0 0 0 1.62,1.741 l 14.175,1.305 a 1.784,1.784 0 0 0 1.947,-1.793 L 20.489,5.041 A 1.782,1.782 0 0 0 18.768,3.277 Z m -8.47,0.748 0.007,0.2 h 0.009 a 0.313,0.313 0 0 1 0.3,-0.208 0.24,0.24 0 0 1 0.057,0.007 V 4.195 A 0.325,0.325 0 0 0 10.603,4.187 0.259,0.259 0 0 0 10.334,4.41 0.433,0.433 0 0 0 10.325,4.494 v 0.53 l -0.2,-0.007 V 4.33 c 0,-0.117 0,-0.218 -0.009,-0.31 z M 9.432,3.976 A 0.451,0.451 0 0 1 9.884,4.457 0.687,0.687 0 0 1 9.878,4.541 L 9.109,4.515 a 0.35,0.35 0 0 0 0.375,0.357 0.774,0.774 0 0 0 0.3,-0.041 l 0.034,0.13 A 0.936,0.936 0 0 1 9.454,5.01 0.5,0.5 0 0 1 8.917,4.493 0.482,0.482 0 0 1 9.432,3.976 Z M 8.352,4.511 C 8.158,4.441 8.066,4.34 8.066,4.222 8.066,4.064 8.207,3.938 8.44,3.945 a 0.6,0.6 0 0 1 0.267,0.07 L 8.657,4.144 A 0.468,0.468 0 0 0 8.435,4.079 c -0.116,0 -0.181,0.056 -0.181,0.129 0,0.073 0.065,0.12 0.206,0.174 0.188,0.071 0.285,0.16 0.285,0.307 0,0.173 -0.148,0.291 -0.406,0.281 A 0.683,0.683 0 0 1 8.039,4.893 L 8.088,4.758 a 0.558,0.558 0 0 0 0.259,0.08 C 8.491,4.838 8.558,4.78 8.558,4.699 8.558,4.618 8.5,4.564 8.352,4.511 Z M 7.687,3.556 A 0.116,0.116 0 0 1 7.808,3.672 0.108,0.108 0 0 1 7.683,3.778 0.117,0.117 0 0 1 7.565,3.664 0.11,0.11 0 0 1 7.687,3.556 Z m 0.1,0.391 V 4.931 L 7.587,4.924 V 3.941 Z M 7.759,6.628 A 0.331,0.331 0 0 1 7.438,7 0.321,0.321 0 0 1 7.122,6.65 0.331,0.331 0 0 1 7.447,6.286 0.308,0.308 0 0 1 7.759,6.628 Z M 7.283,5.8 H 7.429 L 6.762,7 H 6.618 Z M 6.603,6.513 A 0.318,0.318 0 0 1 6.288,6.163 0.33,0.33 0 0 1 6.612,5.8 0.308,0.308 0 0 1 6.924,6.144 0.33,0.33 0 0 1 6.6,6.516 Z M 5.833,3.5 6.008,4.193 c 0.044,0.17 0.083,0.341 0.11,0.473 v 0 A 4.808,4.808 0 0 1 6.243,4.2 l 0.2,-0.68 0.2,0.006 0.181,0.7 c 0.042,0.163 0.082,0.326 0.1,0.471 v 0 C 6.955,4.548 6.997,4.397 7.043,4.229 l 0.2,-0.683 0.2,0.006 L 7.021,4.9 H 6.82 L 6.633,4.18 a 3.56,3.56 0 0 1 -0.1,-0.447 v 0 A 3.8,3.8 0 0 1 6.419,4.173 L 6.208,4.873 6.008,4.866 5.631,3.5 Z m 2.9,13.877 v 0 a 0.3,0.3 0 0 1 -0.324,0.284 l -1.221,-0.08 a 0.30465718,0.30465718 0 0 1 0.04,-0.608 l 1.221,0.08 a 0.3,0.3 0 0 1 0.28,0.328 z m 2.8,1.315 a 1.123,1.123 0 0 1 -1.06,-1.152 1,1 0 0 1 0.351,-0.787 0.884,0.884 0 0 1 0.741,-0.177 1.152,1.152 0 0 1 0.874,1.133 0.937,0.937 0 0 1 -0.906,0.991 z m 4.488,-0.7 a 0.306,0.306 0 0 1 -0.3,0.285 H 15.7 L 15.361,18.255 V 18.6 A 0.252,0.252 0 0 1 15.109,18.852 0.255,0.255 0 0 1 14.931,18.778 0.253,0.253 0 0 1 14.858,18.6 v -0.376 l -0.379,-0.025 a 0.30466416,0.30466416 0 0 1 0.02,-0.609 h 0.02 l 0.339,0.022 v -0.343 a 0.252,0.252 0 0 1 0.5,0 v 0.376 l 0.379,0.025 a 0.3,0.3 0 0 1 0.284,0.323 z M 14.81,13.454 a 0.536,0.536 0 0 1 0.6,-0.532 0.521,0.521 0 0 1 0.579,0.513 0.54,0.54 0 0 1 -0.6,0.536 0.527,0.527 0 0 1 -0.579,-0.517 z m 1.9,1.41 c 0.228,-3.464 -3.959,-3.7 -3.88,-0.281 L 5.815,14.076 5.715,7.115 C 6.96,8.824 9.1,7.554 8.745,5.509 l 8.244,0.416 0.124,8.968 z M 9.416,4.1 a 0.3,0.3 0 0 0 -0.3,0.283 L 9.697,4.402 A 0.275,0.275 0 0 0 9.416,4.1 Z m 5.989,9.647 c 0.137,0 0.225,-0.121 0.225,-0.3 0,-0.15 -0.065,-0.3 -0.225,-0.3 -0.16,0 -0.231,0.154 -0.231,0.3 0,0.171 0.081,0.3 0.231,0.3 z M 7.443,6.85 c 0.077,0 0.115,-0.079 0.115,-0.209 0,-0.13 -0.031,-0.209 -0.115,-0.209 -0.084,0 -0.117,0.093 -0.117,0.209 0,0.116 0.039,0.209 0.117,0.209 z M 6.607,5.951 c -0.08,0 -0.118,0.092 -0.118,0.208 0,0.116 0.041,0.209 0.12,0.209 0.079,0 0.114,-0.079 0.114,-0.209 0,-0.13 -0.032,-0.208 -0.116,-0.208 z M 11.5,16.9 a 0.657,0.657 0 0 0 -0.123,-0.012 0.545,0.545 0 0 0 -0.35,0.124 0.68,0.68 0 0 0 -0.232,0.537 0.809,0.809 0 0 0 0.738,0.83 0.62,0.62 0 0 0 0.584,-0.661 A 0.836,0.836 0 0 0 11.5,16.9 Z"></path>

</svg>
